X:1
T:Title
%%score { ( 1 3 ) | ( 2 4 ) }
L:1/8
M:4/4
K:Ab
V:1 treble nm="Grand Piano"
V:3 treble 
V:2 bass 
V:4 bass 
V:1
 z4 z2[Q:1/4=100] E2 | c2 B2 A2 E2 | F2 A2 E3 E | A2 A2 c2 A2 |[M:7/8] c2 B2 B3 |[M:1/8] E | %6
[M:4/4] c2 B2 A2 A2 |[M:5/4] B2 c2 [Fd]6 |[M:4/4] c2 E2 c E3 |[M:7/8] B- B3 z z2 |[M:1/8] [EA] | %11
[M:4/4] G2 A2 B3 B | A2 B2 [Ec]3 [Ec] | cBBB c2 [A=d]2 |[M:7/8] e-e-e- e- e3 |[M:1/4] E2 | %16
[M:4/4] c2 B2 A3 A |[M:5/4] [FB]2 [Fc]2 [Fd]6 |[M:4/4] c2 E2 c E3 |[M:3/4] B4 z2 |] %20
V:2
 z4 z2 [A,C]2 | [A,E]2 [A,DE]2 [A,CE]2 [A,C]2 | [D,A,D]2 [F,A,D]2[K:treble] [A,C]3 [A,C] | %3
 [A,CE]2 [A,CE]2 [A,EA]2[K:bass] [A,CE]2 |[M:7/8] [E,A,E]2 [E,G,E]2 [E,G,E]3 |[M:1/8] [E,G,] | %6
[M:4/4][K:treble] [A,E]2 [A,DE]2 [A,CE]2 [A,CE]2 |[M:5/4] [A,DE]2 [A,E_G]2[K:bass] [D,D]6 | %8
[M:4/4] [E,A,E]2 [E,A,C]2 [E,A,E] [E,A,C]3 |[M:7/8] E2 z z z z2 |[M:1/8] [C,A,] | %11
[M:4/4] [E,B,E]2 [F,B,E]2 [G,B,E]3 [E,G,D] | [A,C]2 [E,G,E]2 [A,,A,]3 [C,A,] | %13
 [E,A,E][E,G,E][E,G,E][E,G,E] [A,E]2 [F,B,]2 |[M:7/8] B,2 z z z z2 |[M:1/4] [E,G,]2 | %16
[M:4/4] [A,E]2 [A,DE]2 [A,CE]3 [A,CE] |[M:5/4] [D,B,]2 [C,=A,]2 [B,,B,]6 | %18
[M:4/4] [E,A,E]2 [E,A,C]2 [E,A,E] [E,A,C]3 |[M:3/4] E2 z2 z2 |] %20
V:3
 x8 | x8 | x8 | x8 |[M:7/8] x7 |[M:1/8] x |[M:4/4] x8 |[M:5/4] x10 |[M:4/4] x8 | %9
[M:7/8] z2 D2 [CA]3 |[M:1/8] x |[M:4/4] x8 | x8 | x8 |[M:7/8] G2 A2 B3 |[M:1/4] x2 |[M:4/4] x8 | %17
[M:5/4] x10 |[M:4/4] x8 |[M:3/4] z2 D2 [CA]2 |] %20
V:4
 x8 | x8 | x4[K:treble] x4 | x6[K:bass] x2 |[M:7/8] x7 |[M:1/8] x |[M:4/4][K:treble] x8 | %7
[M:5/4] x4[K:bass] x6 |[M:4/4] x8 |[M:7/8] [E,G,]- [E,G,]3 [A,,A,]3 |[M:1/8] x |[M:4/4] x8 | x8 | %13
 x8 |[M:7/8] E,2- [E,-C]2 [E,D]3 |[M:1/4] x2 |[M:4/4] x8 |[M:5/4] x10 |[M:4/4] x8 | %19
[M:3/4] [E,G,]4 [A,,A,]2 |] %20

